images/icon/sending-mail.svg

<svg xmlns="http://www.w3.org/2000/svg" width="1024" height="1024" class="colorable-icon" overflow="visible" viewBox="-24 -24 1084 1084"><g fill="none" stroke="#000" stroke-linecap="round" stroke-linejoin="round" stroke-width="45"><path d="M585.97 472.05c56.68-27.98 61.2-31.93 64.36-36.82l2-9.72M420.67 920.72q-28.43-13.3-147.09-72.28M27.16 725.33c-9.3-5.69-17.42-13.41-23.03-22.63C1.25 693.51.18 680.58.14 597.15m.02-375.47.81-22.33m840.23.46-113.15-55.3M437.82 4.53C431.17 2 423.13.2 418.72 0c-6.44 1.28-20.31 6.95-90.56 40.83M39.05 181.13.97 199.35m473.83 696.6-52.23 25.65m419.52-462.53-.89-259.26M420.67 920.72l.01-516.85M841.2 199.81 420.68 403.87m0 0L.97 199.35m651.5 88.09L243.8 81.68m408.53 343.83.15-133.86m-378.9 556.79L27.16 725.33M.14 597.15l.02-375.47m727.89-77.17L437.82 4.53M799.01 648.4l118.94 119.36m-308.7.11 308.7-.11M801.48 885.01l116.47-117.25M328.16 40.83 39.05 181.13"/><circle cx="767.863" cy="768.614" r="255.519"/></g></svg>

<svg xmlns="http://www.w3.org/2000/svg" width="1024" height="1024" viewBox="-24 -24 1084 1084" class="colorable-icon" data-export-recolorable-svg="true" overflow="visible"><g fill="none" stroke="black" stroke-width="45" stroke-linecap="round" stroke-linejoin="round"><path d="M 585.97,472.05 C 642.65,444.07 647.17,440.12 650.33,435.23 L 652.33,425.51" data-line="nan" stroke-width="45.0"></path><path d="M 420.67,920.72 Q 392.24,907.42 273.58,848.44" data-line="nan" stroke-width="45.0"></path><path d="M 27.16,725.33 C 17.86,719.64 9.74,711.92 4.13,702.7 C 1.25,693.51 0.18,680.58 0.14,597.15" data-line="nan" stroke-width="45.0"></path><path d="M 0.16,221.68 L 0.97,199.35" data-line="nan" stroke-width="45.0"></path><path d="M 841.2,199.81 L 728.05,144.51" data-line="nan" stroke-width="45.0"></path><path d="M 437.82,4.53 C 431.17,2.0 423.13,0.2 418.72,0.0 C 412.28,1.28 398.41,6.95 328.16,40.83" data-line="nan" stroke-width="45.0"></path><path d="M 39.05,181.13 L 0.97,199.35" data-line="nan" stroke-width="45.0"></path><path d="M 474.8,895.95 L 422.57,921.6" data-line="0.0" stroke-width="45.0"></path><path d="M 842.09,459.07 L 841.2,199.81" data-line="1.0" stroke-width="45.0"></path><path d="M 420.67,920.72 L 420.68,403.87" data-line="2.0" stroke-width="45.0"></path><path d="M 841.2,199.81 L 420.68,403.87" data-line="3.0" stroke-width="45.0"></path><path d="M 420.68,403.87 L 0.97,199.35" data-line="5.0" stroke-width="45.0"></path><path d="M 652.47,287.44 L 243.8,81.68" data-line="8.0" stroke-width="45.0"></path><path d="M 652.33,425.51 L 652.48,291.65" data-line="11.0" stroke-width="45.0"></path><path d="M 273.58,848.44 L 27.16,725.33" data-line="13.0" stroke-width="45.0"></path><path d="M 0.14,597.15 L 0.16,221.68" data-line="15.0" stroke-width="45.0"></path><path d="M 728.05,144.51 L 437.82,4.53" data-line="18.0" stroke-width="45.0"></path><path d="M 799.01,648.4 L 917.95,767.76" data-line="18.0" stroke-width="45.0"></path><path d="M 609.25,767.87 L 917.95,767.76" data-line="19.0" stroke-width="45.0"></path><path d="M 801.48,885.01 L 917.95,767.76" data-line="20.0" stroke-width="45.0"></path><path d="M 328.16,40.83 L 39.05,181.13" data-line="20.0" stroke-width="45.0"></path><circle cx="767.8631794428776" cy="768.6139632106527" r="255.51917622827395" data-line="21.0" stroke-width="45.0"></circle></g></svg>
